X:0524
M:C
L:1/8
Q:1/4=90
K:D
    {Bc}d2       dA       BG           z   f    | gfed          {d}c2  z   \
e|     Ta2      Tg2       f/d/g/e/     a/f/e/d/ | A2    (Te2{de})  d4    ||
P:Chos.
        f3        f       g/f/g        z   f    | gfed        ({d}Tc2) z2 |\
"_For."Ta2      Tg2      (f/d/)(g/e/) (a/f/e/d/)| A2    (Te2{de})  d4    |]

